public/click-B1og.svg

<svg width="614" height="345" viewBox="0 0 614 345" fill="none" xmlns="http://www.w3.org/2000/svg">
<g clip-path="url(#clip0_9_83943)">
<g opacity="0.71">
<path d="M104.768 183.661H212.085L331.55 114.868C346.934 106.008 373.81 107.12 391.576 117.349L506.73 183.662H613.994V198.37H613.96C614.398 204.366 611.045 210.153 603.652 214.41L387.258 339.019C371.874 347.878 344.997 346.767 327.231 336.536L119.464 216.897C110.235 211.582 105.321 204.853 104.846 198.37H104.768V183.661Z" fill="#F0F4FC"/>
<path d="M387.043 324.544L603.437 199.936C618.821 191.076 616.893 175.6 599.128 165.371L391.361 45.7289C373.595 35.4982 346.72 34.387 331.334 43.2471L114.939 167.856C99.5548 176.716 101.483 192.192 119.249 202.421L327.016 322.06C344.782 332.292 371.657 333.403 387.043 324.544Z" fill="#FBFDFF"/>
</g>
<path d="M1.1679 172.859C1.1679 172.859 -0.835855 168.72 1.1679 160.383C3.17166 152.046 9.18348 155.932 9.18348 155.932C11.4484 169.574 27.5447 162.139 40.9978 164.006L132.636 217.456L172.623 231.856L300.274 166.154L297.325 164.454C308.233 159.371 314.484 162.811 320.387 152.207L328.979 157.316L334.086 158.751L333.711 173.318C333.711 178.982 329.966 184.646 322.482 188.955L194.595 262.602C179.622 271.222 155.256 271.222 140.282 262.602L12.3972 188.957C5.03471 184.718 1.29053 179.167 1.17392 173.6C1.16844 173.351 1.17885 173.101 1.18925 172.852L1.1679 172.859Z" fill="url(#paint0_linear_9_83943)"/>
<path d="M194.336 249.045L322.221 175.4C337.195 166.772 337.195 152.746 322.221 144.126L194.336 70.48C179.368 61.86 155.002 61.86 140.027 70.4849L12.1412 144.125C-2.83275 152.753 -2.8327 166.779 12.1364 175.399L140.021 249.045C154.997 257.665 179.363 257.665 194.336 249.045Z" fill="#333C5E"/>
<path d="M263.489 217.6L263.626 217.363L474.331 339.358L474.058 339.831L263.352 217.836L263.489 217.6Z" fill="url(#paint1_linear_9_83943)"/>
<path d="M239.446 334.91L239.385 334.817L239.148 334.451L311.531 287.814C313.372 286.628 314.876 284.991 315.901 283.06C316.926 281.128 317.437 278.966 317.385 276.782C317.332 274.597 316.719 272.462 315.603 270.581C314.488 268.701 312.907 267.137 311.012 266.04L244.737 227.668L244.874 227.432L245.012 227.195L311.286 265.567C313.262 266.711 314.91 268.341 316.074 270.303C317.238 272.264 317.877 274.49 317.932 276.768C317.986 279.046 317.453 281.3 316.385 283.315C315.316 285.329 313.747 287.036 311.828 288.273L239.446 334.91Z" fill="url(#paint2_linear_9_83943)"/>
<path d="M449.9 195.939L449.602 195.48L370.492 246.453C367.305 248.507 363.611 249.641 359.818 249.731C356.025 249.821 352.281 248.863 349 246.964L282.788 208.628L282.651 208.865L282.514 209.101L349.015 247.604C352.296 249.504 356.04 250.462 359.833 250.372C363.626 250.282 367.32 249.148 370.507 247.095L449.9 195.939Z" fill="url(#paint3_linear_9_83943)"/>
<path d="M244.957 229.618C246.167 229.618 247.147 228.64 247.147 227.434C247.147 226.228 246.167 225.25 244.957 225.25C243.748 225.25 242.768 226.228 242.768 227.434C242.768 228.64 243.748 229.618 244.957 229.618Z" fill="#6FA6E3"/>
<path d="M263.514 219.298C264.724 219.298 265.704 218.32 265.704 217.114C265.704 215.908 264.724 214.93 263.514 214.93C262.305 214.93 261.324 215.908 261.324 217.114C261.324 218.32 262.305 219.298 263.514 219.298Z" fill="#6FA6E3"/>
<path d="M282.186 209.962C283.395 209.962 284.376 208.984 284.376 207.778C284.376 206.572 283.395 205.594 282.186 205.594C280.977 205.594 279.996 206.572 279.996 207.778C279.996 208.984 280.977 209.962 282.186 209.962Z" fill="#6FA6E3"/>
<path d="M167.18 235.671C175.064 235.671 182.948 233.941 188.955 230.481L288.872 172.946C294.888 169.481 298.204 164.8 298.209 159.762C298.213 154.724 294.888 150.042 288.872 146.577L188.958 89.0418C176.954 82.1316 157.419 82.1218 145.405 89.0418L45.4909 146.577C39.4687 150.043 36.1543 154.724 36.1543 159.762C36.1543 164.8 39.4704 169.481 45.4855 172.951L145.4 230.481C151.406 233.941 159.293 235.671 167.18 235.671Z" stroke="#6DA4E3" stroke-width="2"/>
<path d="M12.1378 175.399L140.023 249.045C154.997 257.665 179.362 257.665 194.336 249.045L322.222 175.399C328.915 171.542 332.604 166.611 333.318 161.559C334.194 167.807 330.502 174.227 322.222 179.002L194.337 252.643C179.364 261.268 154.998 261.268 140.025 252.643L12.1378 179.003C3.85783 174.235 0.168374 167.814 1.04652 161.565C1.7555 166.612 5.44933 171.548 12.1378 175.399Z" fill="#242B43"/>
<path d="M174.142 1.82659C174.295 1.84789 174.447 1.87355 174.595 1.90796L170.541 0.93708C169.337 0.642759 168.162 0.243597 166.779 0.468023C164.199 0.891758 161.649 3.01043 159.948 5.53099C158.505 7.60974 157.689 10.0565 157.596 12.5827L157.547 40.0451C157.547 42.1578 158.313 44.0378 159.895 44.9093C160.802 45.4084 161.946 45.5444 162.982 45.7918L166.769 46.6917C164.556 46.1614 163.4 43.9849 163.405 41.437L163.454 13.9746C163.584 11.0047 164.684 8.15888 166.587 5.87118C168.613 3.35553 171.573 1.50989 174.142 1.83861L174.142 1.82659Z" fill="#FFD73E"/>
<path d="M170.723 2.47617C174.728 0.593396 177.968 2.69023 177.959 7.16019L177.911 34.6232C177.911 39.0904 174.649 44.238 170.645 46.1246C166.641 48.0112 163.398 45.9095 163.406 41.439L163.455 13.9765C163.464 9.50383 166.717 4.35349 170.723 2.47617Z" fill="#FFE06A"/>
<path d="M156.219 173.394L156.27 145.126L150.412 143.734L150.363 172.002C150.363 173.711 151.082 175.197 152.514 175.66C153.453 175.966 154.477 176.136 155.453 176.366L158.607 177.118C157.031 176.744 156.216 175.2 156.221 173.392L156.219 173.394Z" fill="#E5EBF9"/>
<path d="M171.45 64.9794C172.068 64.7898 172.725 64.7609 173.358 64.8953L169.483 63.9851C168.329 63.7121 167.17 63.2337 165.829 63.5406C163.475 64.0752 161.308 66.4412 160.297 68.8722L128.261 145.563C127.312 147.838 127.263 150.402 128.622 151.744C129.434 152.547 130.718 152.665 131.842 152.927L135.808 153.869C133.235 153.259 132.915 149.838 134.119 146.955L166.155 70.2641C167.14 67.9074 169.185 65.6374 171.465 64.986L171.45 64.9794Z" fill="#E5EBF9"/>
<path d="M170.61 65.2948C172.395 64.4238 174.169 64.7329 175.057 66.0696L206.871 112.767C207.787 114.112 207.782 116.299 206.871 118.501C206.024 120.63 204.443 122.388 202.414 123.46L184.688 131.786L184.639 160.051C184.639 163.218 182.324 166.869 179.485 168.202L161.349 176.721C158.51 178.051 156.213 176.557 156.22 173.397L156.27 145.129L138.553 153.449C136.768 154.323 134.994 154.011 134.108 152.672C133.191 151.33 133.195 149.143 134.108 146.938L166.143 70.2474C167.001 68.1233 168.583 66.3694 170.61 65.2948Z" fill="url(#paint4_linear_9_83943)"/>
<path d="M128.282 80.8245L110.91 69.5802C109.024 68.3631 108.475 65.6923 108.98 62.9774C109.588 60.0073 111.111 57.3005 113.335 55.2344C113.802 54.8314 114.282 54.4526 114.774 54.0981C115.319 53.7282 115.902 53.4171 116.514 53.1698C117.589 52.6974 118.784 52.5659 119.937 52.793L114.07 51.4028C112.041 50.9179 109.423 51.9712 107.469 53.8463C105.27 55.8938 103.756 58.5681 103.136 61.5047C102.609 64.2453 103.149 66.9482 105.052 68.1801L122.425 79.4244C123.392 80.0502 124.682 80.1938 125.837 80.4684L129.533 81.3476C129.089 81.2424 128.666 81.0625 128.282 80.8157L128.282 80.8245Z" fill="#FFD73E"/>
<path d="M116.062 53.3657C117.924 52.4598 119.812 52.4451 121.186 53.327L138.558 64.5712C141.384 66.3977 141.375 71.5235 138.538 76.0082C137.307 78.0466 135.53 79.7011 133.406 80.7845C131.547 81.6899 129.657 81.7046 128.283 80.8238L110.911 69.5796C108.085 67.753 108.093 62.6273 110.93 58.1426C112.161 56.1043 113.939 54.4498 116.062 53.3657Z" fill="#FFE06A"/>
<path d="M118.971 112.956C119.889 112.644 120.874 112.585 121.823 112.784L116.775 111.588C116.008 111.331 115.197 111.232 114.39 111.297C113.583 111.362 112.798 111.589 112.082 111.966L87.4752 123.525C86.2367 124.128 85.1186 124.951 84.1756 125.953C81.9284 128.258 80.5365 131.258 80.2299 134.457C80.0706 137.068 81.0287 139.406 83.1595 140.152C84.1546 140.45 85.1644 140.697 86.1848 140.892L89.4291 141.669C87.2359 141.148 86.0852 139.013 86.0676 136.5C86.0753 133.492 87.439 130.22 89.757 127.649C90.7602 126.516 91.9749 125.589 93.3332 124.919L117.948 113.357C118.28 113.201 118.621 113.068 118.971 112.958V112.956Z" fill="#FFD73E"/>
<path d="M117.947 113.357C121.953 111.477 125.193 113.576 125.184 118.041C125.175 122.507 121.924 127.656 117.918 129.543L93.303 141.097C89.2976 142.977 86.0577 140.882 86.0664 136.413C86.0752 131.943 89.3239 126.799 93.332 124.911L117.947 113.357Z" fill="#FFE06A"/>
<path d="M248.826 51.9713C249.744 51.6612 250.728 51.6031 251.676 51.8032L245.818 50.4189C244.498 50.1723 243.134 50.3736 241.942 50.9906L217.327 62.5412C211.795 65.1388 208.168 73.6042 211.071 77.6908C211.634 78.4949 212.475 79.0632 213.432 79.2864L219.29 80.6772C218.763 80.5804 218.269 80.3543 217.852 80.0192C217.396 79.6798 217.014 79.2514 216.73 78.76C216.051 77.4811 215.784 76.0244 215.966 74.5887C216.383 71.1649 218.024 68.0059 220.587 65.6914C221.363 64.9839 222.237 64.3923 223.183 63.9347L247.8 52.3749C248.131 52.2175 248.473 52.0836 248.823 51.9741L248.826 51.9713Z" fill="#FFD73E"/>
<path d="M247.805 52.3699C251.808 50.4876 255.048 52.5883 255.042 57.0539C255.035 61.5195 251.78 66.6643 247.776 68.5559L223.158 80.1092C219.153 81.9892 215.913 79.8908 215.922 75.4252C215.931 70.9596 219.182 65.8109 223.187 63.9232L247.805 52.3699Z" fill="#FFE06A"/>
<path d="M202.369 45.6235C199.638 43.4235 200.306 38.2617 202.729 34.4328L220.159 6.84965C222.286 3.48708 226.048 0.753011 229.164 1.49837L225.019 0.511657C223.8 0.221704 222.627 -0.175273 221.228 0.0841C218.572 0.575545 215.961 2.82418 214.301 5.45231L196.861 33.0567C195.068 35.8924 194.254 39.2883 195.006 41.888C195.162 42.5076 195.451 43.0861 195.852 43.5837C196.254 44.0814 196.758 44.4863 197.332 44.7706C198.015 45.0302 198.721 45.2244 199.441 45.3505L201.705 45.8687L203.957 46.4044C203.376 46.2668 202.833 45.9999 202.369 45.6235Z" fill="#FFD73E"/>
<path d="M225.291 2.06433C227.149 1.15898 229.039 1.14478 230.414 2.02556C233.242 3.85155 233.233 8.97732 230.394 13.4626L212.954 41.0665C211.723 43.1051 209.945 44.7599 207.82 45.8438C205.963 46.7486 204.073 46.7628 202.699 45.8821C199.871 44.0561 199.88 38.9303 202.719 34.4451L220.16 6.84718C221.387 4.80523 223.165 3.14806 225.291 2.06433Z" fill="#FFE06A"/>
</g>
<defs>
<linearGradient id="paint0_linear_9_83943" x1="113.772" y1="225.245" x2="198.021" y2="123.149" gradientUnits="userSpaceOnUse">
<stop stop-color="#333C5E"/>
<stop offset="1" stop-color="#4F5982"/>
</linearGradient>
<linearGradient id="paint1_linear_9_83943" x1="266.727" y1="219.935" x2="324" y2="313.715" gradientUnits="userSpaceOnUse">
<stop stop-color="#77ABD4"/>
<stop offset="0.955" stop-color="#BAC3DE" stop-opacity="0.01"/>
<stop offset="1" stop-color="white" stop-opacity="0"/>
</linearGradient>
<linearGradient id="paint2_linear_9_83943" x1="240.409" y1="229.457" x2="293.486" y2="266.357" gradientUnits="userSpaceOnUse">
<stop stop-color="#77ABD4"/>
<stop offset="0.955" stop-color="#BAC3DE" stop-opacity="0.01"/>
<stop offset="1" stop-color="white" stop-opacity="0"/>
</linearGradient>
<linearGradient id="paint3_linear_9_83943" x1="285.192" y1="196.633" x2="302.988" y2="248.209" gradientUnits="userSpaceOnUse">
<stop stop-color="#77ABD4"/>
<stop offset="0.955" stop-color="#BAC3DE" stop-opacity="0.01"/>
<stop offset="1" stop-color="white" stop-opacity="0"/>
</linearGradient>
<linearGradient id="paint4_linear_9_83943" x1="170.489" y1="64.8047" x2="170.489" y2="177.207" gradientUnits="userSpaceOnUse">
<stop stop-color="#A0CCE0"/>
<stop offset="1" stop-color="#69A1E3"/>
</linearGradient>
<clipPath id="clip0_9_83943">
<rect width="614" height="345" fill="white"/>
</clipPath>
</defs>
</svg>

<svg xmlns="http://www.w3.org/2000/svg" width="614" height="345" fill="none" viewBox="0 0 614 345"><g clip-path="url(#a)"><g opacity=".71"><path fill="#f0f4fc" d="M104.768 183.661h107.317l119.465-68.793c15.384-8.86 42.26-7.748 60.026 2.481l115.154 66.313h107.264v14.708h-.034c.438 5.996-2.915 11.783-10.308 16.04L387.258 339.019c-15.384 8.859-42.261 7.748-60.027-2.483L119.464 216.897c-9.229-5.315-14.143-12.044-14.618-18.527h-.078z"/><path fill="#fbfdff" d="m387.043 324.544 216.394-124.608c15.384-8.86 13.456-24.336-4.309-34.565L391.361 45.729c-17.766-10.23-44.641-11.342-60.027-2.482L114.939 167.856c-15.384 8.86-13.456 24.336 4.31 34.565L327.016 322.06c17.766 10.232 44.641 11.343 60.027 2.484"/></g><path fill="url(#b)" d="M1.168 172.859s-2.004-4.139 0-12.476 8.015-4.451 8.015-4.451c2.265 13.642 18.362 6.207 31.815 8.074l91.638 53.45 39.987 14.4 127.651-65.702-2.949-1.7c10.908-5.083 17.159-1.643 23.062-12.247l8.592 5.109 5.107 1.435-.375 14.567c0 5.664-3.745 11.328-11.229 15.637l-127.887 73.647c-14.973 8.62-39.339 8.62-54.313 0L12.397 188.957c-7.362-4.239-11.106-9.79-11.223-15.357-.006-.249.005-.499.015-.748z"/><path fill="#333c5e" d="M194.336 249.045 322.221 175.4c14.974-8.628 14.974-22.654 0-31.274L194.336 70.48c-14.968-8.62-39.334-8.62-54.309.005l-127.886 73.64c-14.974 8.628-14.974 22.654-.005 31.274l127.885 73.646c14.976 8.62 39.342 8.62 54.315 0"/><path fill="url(#c)" d="m263.489 217.6.137-.237 210.705 121.995-.273.473-210.706-121.995z"/><path fill="url(#d)" d="m239.446 334.91-.061-.093-.237-.366 72.383-46.637a12.8 12.8 0 0 0 4.37-4.754 12.75 12.75 0 0 0-4.889-17.02l-66.275-38.372.137-.236.138-.237 66.274 38.372a13.33 13.33 0 0 1 4.788 4.736 13.293 13.293 0 0 1-4.246 17.97z"/><path fill="url(#e)" d="m449.9 195.939-.298-.459-79.11 50.973a20.621 20.621 0 0 1-21.492.511l-66.212-38.336-.137.237-.137.236 66.501 38.503a20.61 20.61 0 0 0 21.492-.509z"/><path fill="#6fa6e3" d="M244.957 229.618c1.21 0 2.19-.978 2.19-2.184s-.98-2.184-2.19-2.184a2.187 2.187 0 0 0-2.189 2.184c0 1.206.98 2.184 2.189 2.184M263.514 219.298c1.21 0 2.19-.978 2.19-2.184s-.98-2.184-2.19-2.184-2.19.978-2.19 2.184.981 2.184 2.19 2.184M282.186 209.962c1.209 0 2.19-.978 2.19-2.184a2.187 2.187 0 0 0-2.19-2.184c-1.209 0-2.19.978-2.19 2.184s.981 2.184 2.19 2.184"/><path stroke="#6da4e3" stroke-width="2" d="M167.18 235.671c7.884 0 15.768-1.73 21.775-5.19l99.917-57.535c6.016-3.465 9.332-8.146 9.337-13.184s-3.321-9.72-9.337-13.185l-99.914-57.535c-12.004-6.91-31.539-6.92-43.553 0l-99.914 57.535c-6.022 3.466-9.337 8.147-9.337 13.185s3.316 9.719 9.331 13.189l99.915 57.53c6.006 3.46 13.893 5.19 21.78 5.19Z"/><path fill="#242b43" d="m12.138 175.399 127.885 73.646c14.974 8.62 39.339 8.62 54.313 0l127.886-73.646c6.693-3.857 10.382-8.788 11.096-13.84.876 6.248-2.816 12.668-11.096 17.443l-127.885 73.641c-14.973 8.625-39.339 8.625-54.312 0l-127.887-73.64c-8.28-4.768-11.97-11.189-11.091-17.438.709 5.047 4.402 9.983 11.09 13.834"/><path fill="#ffd73e" d="M174.142 1.827q.23.03.453.081l-4.054-.97c-1.204-.295-2.379-.694-3.762-.47-2.58.424-5.13 2.542-6.831 5.063a13.2 13.2 0 0 0-2.352 7.052l-.049 27.462c0 2.113.766 3.993 2.348 4.864.907.5 2.051.635 3.087.883l3.787.9c-2.213-.53-3.369-2.707-3.364-5.255l.049-27.462a13.6 13.6 0 0 1 3.133-8.104c2.026-2.515 4.986-4.361 7.555-4.032z"/><path fill="#ffe06a" d="M170.723 2.476c4.005-1.883 7.245.214 7.236 4.684l-.048 27.463c0 4.467-3.262 9.615-7.266 11.502-4.004 1.886-7.247-.215-7.239-4.686l.049-27.462c.009-4.473 3.262-9.624 7.268-11.5"/><path fill="#e5ebf9" d="m156.219 173.394.051-28.268-5.858-1.392-.049 28.268c0 1.709.719 3.195 2.151 3.658.939.306 1.963.476 2.939.706l3.154.752c-1.576-.374-2.391-1.918-2.386-3.726zM171.45 64.98a3.8 3.8 0 0 1 1.908-.085l-3.875-.91c-1.154-.273-2.313-.751-3.654-.444-2.354.534-4.521 2.9-5.532 5.331l-32.036 76.691c-.949 2.275-.998 4.839.361 6.181.812.803 2.096.921 3.22 1.183l3.966.942c-2.573-.61-2.893-4.031-1.689-6.914l32.036-76.69c.985-2.358 3.03-4.628 5.31-5.279z"/><path fill="url(#f)" d="M170.61 65.295c1.785-.871 3.559-.562 4.447.775l31.814 46.697c.916 1.345.911 3.532 0 5.734a9.64 9.64 0 0 1-4.457 4.959l-17.726 8.326-.049 28.265c0 3.167-2.315 6.818-5.154 8.151l-18.136 8.519c-2.839 1.33-5.136-.164-5.129-3.324l.05-28.268-17.717 8.32c-1.785.874-3.559.562-4.445-.777-.917-1.342-.913-3.529 0-5.734l32.035-76.69a9.73 9.73 0 0 1 4.467-4.953"/><path fill="#ffd73e" d="M128.282 80.825 110.91 69.58c-1.886-1.217-2.435-3.888-1.93-6.603a14.55 14.55 0 0 1 4.355-7.743q.7-.604 1.439-1.136a9.3 9.3 0 0 1 1.74-.928 5.75 5.75 0 0 1 3.423-.377l-5.867-1.39c-2.029-.485-4.647.568-6.601 2.443a14.6 14.6 0 0 0-4.333 7.659c-.527 2.74.013 5.443 1.916 6.675l17.373 11.244c.967.626 2.257.77 3.412 1.044l3.696.88a4 4 0 0 1-1.251-.532z"/><path fill="#ffe06a" d="M116.062 53.366c1.862-.906 3.75-.92 5.124-.039l17.372 11.244c2.826 1.827 2.817 6.953-.02 11.437a12.8 12.8 0 0 1-5.132 4.776c-1.859.906-3.749.92-5.123.04L110.911 69.58c-2.826-1.827-2.818-6.953.019-11.437a12.8 12.8 0 0 1 5.132-4.777"/><path fill="#ffd73e" d="M118.971 112.956a5.4 5.4 0 0 1 2.852-.172l-5.048-1.196a6 6 0 0 0-4.693.378l-24.607 11.559a11.4 11.4 0 0 0-3.3 2.428 14.1 14.1 0 0 0-3.945 8.504c-.16 2.611.799 4.949 2.93 5.695q1.493.447 3.025.74l3.244.777c-2.193-.521-3.344-2.656-3.361-5.169.007-3.008 1.371-6.28 3.689-8.851a11.7 11.7 0 0 1 3.576-2.73l24.615-11.562a8 8 0 0 1 1.023-.399z"/><path fill="#ffe06a" d="M117.947 113.357c4.006-1.88 7.246.219 7.237 4.684-.009 4.466-3.26 9.615-7.266 11.502l-24.615 11.554c-4.005 1.88-7.245-.215-7.237-4.684.01-4.47 3.258-9.614 7.266-11.502z"/><path fill="#ffd73e" d="M248.826 51.971a5.4 5.4 0 0 1 2.85-.168l-5.858-1.384a6.03 6.03 0 0 0-3.876.572l-24.615 11.55c-5.532 2.598-9.159 11.063-6.256 15.15a4 4 0 0 0 2.361 1.595l5.858 1.391a3.2 3.2 0 0 1-1.438-.658 4.2 4.2 0 0 1-1.122-1.259 7 7 0 0 1-.764-4.171 14.32 14.32 0 0 1 4.621-8.898c.776-.707 1.65-1.299 2.596-1.756l24.617-11.56a8 8 0 0 1 1.023-.4z"/><path fill="#ffe06a" d="M247.805 52.37c4.003-1.882 7.243.218 7.237 4.684-.007 4.465-3.262 9.61-7.266 11.502l-24.618 11.553c-4.005 1.88-7.245-.218-7.236-4.684.009-4.465 3.26-9.614 7.265-11.502z"/><path fill="#ffd73e" d="M202.369 45.624c-2.731-2.2-2.063-7.362.36-11.191l17.43-27.583c2.127-3.363 5.889-6.097 9.005-5.352l-4.145-.986c-1.219-.29-2.392-.687-3.791-.428-2.656.492-5.267 2.74-6.927 5.368l-17.44 27.605c-1.793 2.835-2.607 6.231-1.855 8.831a4.43 4.43 0 0 0 2.326 2.883c.683.26 1.389.453 2.109.58l2.264.518 2.252.535a4 4 0 0 1-1.588-.78"/><path fill="#ffe06a" d="M225.291 2.064c1.858-.905 3.748-.92 5.123-.038 2.828 1.826 2.819 6.951-.02 11.437l-17.44 27.603a12.8 12.8 0 0 1-5.134 4.778c-1.857.905-3.747.919-5.121.038-2.828-1.826-2.819-6.952.02-11.437L220.16 6.847a12.73 12.73 0 0 1 5.131-4.783"/></g><defs><linearGradient id="b" x1="113.772" x2="198.021" y1="225.245" y2="123.149" gradientUnits="userSpaceOnUse"><stop stop-color="#333c5e"/><stop offset="1" stop-color="#4f5982"/></linearGradient><linearGradient id="c" x1="266.727" x2="324" y1="219.935" y2="313.715" gradientUnits="userSpaceOnUse"><stop stop-color="#77abd4"/><stop offset=".955" stop-color="#bac3de" stop-opacity=".01"/><stop offset="1" stop-color="#fff" stop-opacity="0"/></linearGradient><linearGradient id="d" x1="240.409" x2="293.486" y1="229.457" y2="266.357" gradientUnits="userSpaceOnUse"><stop stop-color="#77abd4"/><stop offset=".955" stop-color="#bac3de" stop-opacity=".01"/><stop offset="1" stop-color="#fff" stop-opacity="0"/></linearGradient><linearGradient id="e" x1="285.192" x2="302.988" y1="196.633" y2="248.209" gradientUnits="userSpaceOnUse"><stop stop-color="#77abd4"/><stop offset=".955" stop-color="#bac3de" stop-opacity=".01"/><stop offset="1" stop-color="#fff" stop-opacity="0"/></linearGradient><linearGradient id="f" x1="170.489" x2="170.489" y1="64.805" y2="177.207" gradientUnits="userSpaceOnUse"><stop stop-color="#a0cce0"/><stop offset="1" stop-color="#69a1e3"/></linearGradient><clipPath id="a"><path fill="#fff" d="M0 0h614v345H0z"/></clipPath></defs></svg>
